images/advantages-img3.svg

<svg width="31" height="50" viewBox="0 0 31 50" fill="none" xmlns="http://www.w3.org/2000/svg">
<path d="M29.8922 31.6731L25.9633 29.6684C26.5257 26.3665 26.9622 22.9671 26.9622 20.3687C26.9622 13.0587 23.9056 7.94793 21.3413 4.94773C18.5616 1.69558 15.7928 0.180347 15.6762 0.117456C15.3866 -0.0389893 15.0378 -0.0389893 14.7482 0.117456C14.6317 0.180249 11.8628 1.69558 9.08309 4.94773C6.51883 7.94793 3.46218 13.0587 3.46218 20.3687C3.46218 22.967 3.89861 26.3664 4.46111 29.6684L0.532299 31.6731C0.146166 31.8702 -0.0637955 32.2981 0.016478 32.724L2.20281 44.3162C2.26365 44.6385 2.48211 44.9087 2.78455 45.0357C2.90603 45.0866 3.03455 45.1117 3.16238 45.1117C3.353 45.1117 3.54236 45.056 3.70545 44.9468L8.06483 42.0306H10.5482C10.4767 42.361 10.4402 42.7 10.4402 43.042C10.4402 45.4158 13.8334 49.0096 14.5137 49.706C14.6974 49.8941 14.9493 50.0001 15.2122 50.0001C15.4751 50.0001 15.727 49.8941 15.9107 49.706C16.591 49.0096 19.9842 45.4157 19.9842 43.042C19.9842 42.7 19.9476 42.361 19.8762 42.0306H22.3596L26.719 44.9468C26.8822 45.0559 27.0715 45.1117 27.2621 45.1117C27.39 45.1117 27.5186 45.0866 27.6399 45.0357C27.9424 44.9087 28.1608 44.6385 28.2217 44.3162L30.408 32.724C30.4884 32.2981 30.2783 31.8702 29.8922 31.6731ZM10.517 6.27664C12.4222 4.03182 14.3516 2.66736 15.2123 2.11726C16.0737 2.66785 18.0027 4.03211 19.9076 6.27664C20.4632 6.93133 20.9738 7.60633 21.4394 8.30096H8.98524C9.45067 7.60633 9.96131 6.93133 10.517 6.27664ZM7.82254 10.2541H22.602C24.2016 13.3053 25.0091 16.691 25.0091 20.3687C25.0091 26.3388 22.5047 37.1632 21.8033 40.0775H8.62127C7.91981 37.1636 5.41551 26.3409 5.41551 20.3687C5.41551 16.691 6.22303 13.3053 7.82254 10.2541ZM2.07146 33.0805L4.82019 31.6778C5.55076 35.5973 6.37352 39.1004 6.73074 40.5734L3.84832 42.5016L2.07146 33.0805ZM18.0311 43.0421C18.0311 44.0331 16.5523 46.0771 15.2123 47.5885C13.8721 46.0771 12.3934 44.033 12.3934 43.0421C12.3934 42.694 12.4573 42.3514 12.5805 42.0307H17.8442C17.9673 42.3514 18.0311 42.694 18.0311 43.0421ZM26.5764 42.5016L23.6939 40.5735C24.0512 39.1006 24.8738 35.5974 25.6045 31.6779L28.3532 33.0806L26.5764 42.5016Z" fill="#00A9DD"/>
<path d="M15.2123 25.1108C16.9319 25.1108 18.331 23.7117 18.331 21.9919C18.331 20.2722 16.9319 18.8733 15.2123 18.8733C13.4926 18.8733 12.0935 20.2723 12.0935 21.992C12.0935 23.7118 13.4926 25.1108 15.2123 25.1108ZM15.2123 20.8264C15.855 20.8264 16.3779 21.3494 16.3779 21.992C16.3779 22.6348 15.855 23.1578 15.2123 23.1578C14.5695 23.1578 14.0466 22.6348 14.0466 21.992C14.0466 21.3493 14.5695 20.8264 15.2123 20.8264Z" fill="#00A9DD"/>
</svg>

<svg xmlns="http://www.w3.org/2000/svg" width="31" height="50" fill="#00a9dd" xmlns:v="https://vecta.io/nano"><path d="M29.892 31.673l-3.93-2.005c.562-3.302 1-6.7 1-9.3.0-7.3-3.057-12.42-5.62-15.42-2.78-3.252-5.55-4.767-5.665-4.83-.3-.156-.638-.156-.928.0-.117.063-2.885 1.578-5.665 4.83-2.564 3-5.62 8.1-5.62 15.42.0 2.598.436 5.998 1 9.3l-3.93 2.005c-.386.197-.596.625-.516 1.05l2.186 11.592a.98.98.0 0 0 .582.72.99.99.0 0 0 .378.076.98.98.0 0 0 .543-.165l4.36-2.916h2.483a4.78 4.78.0 0 0-.108 1.011c0 2.374 3.393 5.968 4.073 6.664a.98.98.0 0 0 .698.294c.262.0.515-.106.7-.294.68-.696 4.074-4.3 4.074-6.664a4.79 4.79.0 0 0-.108-1.011h2.483l4.36 2.916a.97.97.0 0 0 .543.165.98.98.0 0 0 .96-.796l2.186-11.592c.08-.426-.13-.854-.516-1.05zM10.517 6.277c1.905-2.245 3.835-3.6 4.695-4.16.86.55 2.8 1.915 4.695 4.16.556.655 1.066 1.33 1.532 2.024H8.985a22.09 22.09.0 0 1 1.532-2.024zm-2.694 3.977h14.78C24.203 13.304 25 16.69 25 20.37c0 5.97-2.504 16.795-3.206 19.7H8.62c-.7-2.914-3.206-13.737-3.206-19.7.0-3.678.808-7.063 2.407-10.115zM2.07 33.08l2.75-1.403c.73 3.92 1.553 7.423 1.9 8.896L3.848 42.5 2.07 33.08zm15.96 9.962c0 1-1.48 3.035-2.82 4.546-1.34-1.5-2.82-3.556-2.82-4.546a2.82 2.82.0 0 1 .187-1.011h5.264a2.82 2.82.0 0 1 .187 1.011zm8.545-.54-2.883-1.928c.357-1.473 1.18-4.976 1.9-8.896l2.75 1.403-1.777 9.42zM15.212 25.1c1.72.0 3.12-1.4 3.12-3.12s-1.4-3.12-3.12-3.12-3.12 1.4-3.12 3.12 1.4 3.12 3.12 3.12zm0-4.284a1.17 1.17.0 0 1 1.166 1.166 1.17 1.17.0 0 1-1.166 1.166 1.17 1.17.0 0 1-1.166-1.166 1.17 1.17.0 0 1 1.166-1.166z"/></svg>
